X:356
T: Kent Rangers (The)
N: O'Farrell's Pocket Companion v.4 (Sky ed. p.153)
N: "Scotch"
M: 2/4
L: 1/8
Q: 180
R: march
K: D
f>edd| eea2| fe/d/ c/d/e/c/| dfA2|
f>edd| eea2| {g}fe/d/ c/d/e/c/| ddd2 :|
AGFF| GBe2| cB/A/ AB/c/| dfA2|
AGFF| GBe2| cB/A/ AB/c/| ddd2 :|
